nova/resources/svg/fluent/settings.svg

<svg width="24" height="24" viewBox="0 0 24 24" fill="none" xmlns="http://www.w3.org/2000/svg">
<path d="M12.0132 2.25005C12.7471 2.25851 13.4782 2.34331 14.1947 2.50309C14.5074 2.57283 14.7413 2.83356 14.7768 3.15201L14.947 4.67886C15.024 5.37991 15.6159 5.91089 16.3216 5.91163C16.5113 5.91193 16.6989 5.87243 16.8742 5.79488L18.2748 5.17961C18.5661 5.05164 18.9064 5.12141 19.1239 5.35367C20.1361 6.43469 20.8899 7.7312 21.3287 9.14563C21.4233 9.45063 21.3144 9.78208 21.0573 9.97155L19.8159 10.8866C19.4617 11.1468 19.2526 11.5601 19.2526 11.9995C19.2526 12.439 19.4617 12.8522 19.8166 13.1129L21.0592 14.0283C21.3163 14.2178 21.4253 14.5493 21.3307 14.8543C20.8921 16.2685 20.1387 17.5649 19.1271 18.6461C18.9098 18.8784 18.5697 18.9483 18.2785 18.8207L16.8721 18.2046C16.4698 18.0285 16.0077 18.0543 15.6275 18.274C15.2473 18.4938 14.9942 18.8812 14.9459 19.3178L14.7769 20.8445C14.742 21.1593 14.5131 21.4182 14.205 21.4915C12.7566 21.8362 11.2475 21.8362 9.79901 21.4915C9.49088 21.4182 9.26202 21.1593 9.22716 20.8445L9.05834 19.32C9.00875 18.8843 8.75532 18.498 8.3754 18.279C7.99549 18.06 7.53418 18.0343 7.13318 18.2094L5.72655 18.8257C5.4352 18.9533 5.09501 18.8833 4.87776 18.651C3.8656 17.5685 3.11217 16.2706 2.67418 14.8548C2.57984 14.5499 2.68884 14.2187 2.94582 14.0293L4.18915 13.1134C4.54329 12.8532 4.75245 12.44 4.75245 12.0005C4.75245 11.5611 4.54329 11.1478 4.18869 10.8873L2.94614 9.9729C2.68877 9.7835 2.57967 9.45183 2.67434 9.14663C3.1131 7.7322 3.86692 6.43569 4.8791 5.35467C5.09657 5.12241 5.43691 5.05264 5.72822 5.18061L7.1286 5.79577C7.53154 5.97261 7.99478 5.9459 8.37675 5.72274C8.75707 5.50214 9.01026 5.11427 9.05914 4.67769L9.22922 3.15201C9.26474 2.8334 9.49884 2.57259 9.81178 2.50299C10.5291 2.34347 11.2609 2.2587 12.0132 2.25005ZM12.0133 3.74995C11.5593 3.75529 11.1065 3.79448 10.6588 3.86706L10.5499 4.84423C10.448 5.75373 9.92101 6.56107 9.1314 7.01908C8.33695 7.48322 7.36834 7.53908 6.52556 7.16922L5.62727 6.77461C5.05534 7.46878 4.60012 8.2514 4.2795 9.09173L5.0773 9.67884C5.81611 10.2217 6.25245 11.0837 6.25245 12.0005C6.25245 12.9173 5.81611 13.7793 5.07807 14.3216L4.27902 14.9103C4.59936 15.7521 5.05465 16.5362 5.62698 17.2317L6.53211 16.8351C7.3702 16.4692 8.33222 16.5228 9.12451 16.9795C9.91679 17.4362 10.4453 18.2418 10.549 19.1527L10.6579 20.1365C11.5476 20.2878 12.4564 20.2878 13.3461 20.1365L13.455 19.1527C13.5558 18.2421 14.0837 17.4337 14.877 16.9753C15.6702 16.5169 16.6342 16.4631 17.4738 16.8305L18.3782 17.2267C18.95 16.5323 19.4051 15.7495 19.7257 14.909L18.9277 14.3212C18.1889 13.7783 17.7526 12.9163 17.7526 11.9995C17.7526 11.0827 18.1889 10.2207 18.9268 9.67852L19.7237 9.09114C19.403 8.25066 18.9478 7.46789 18.3757 6.77361L17.4793 7.16742C17.1139 7.32906 16.7188 7.41225 16.3196 7.41163C14.85 7.41009 13.6165 6.3036 13.4561 4.84388L13.3472 3.86675C12.9016 3.79425 12.4536 3.75517 12.0133 3.74995ZM12.0007 8.25C14.0717 8.25 15.7507 9.92893 15.7507 12C15.7507 14.0711 14.0717 15.75 12.0007 15.75C9.9296 15.75 8.25067 14.0711 8.25067 12C8.25067 9.92893 9.9296 8.25 12.0007 8.25ZM12.0007 9.75C10.758 9.75 9.75067 10.7574 9.75067 12C9.75067 13.2426 10.758 14.25 12.0007 14.25C13.2433 14.25 14.2507 13.2426 14.2507 12C14.2507 10.7574 13.2433 9.75 12.0007 9.75Z" fill="currentColor"/>
</svg>

<svg viewBox="0 0 24 24" fill="none" xmlns="http://www.w3.org/2000/svg"><path d="M12.013 2.25c.734.009 1.465.093 2.182.253a.75.75 0 01.582.649l.17 1.527a1.384 1.384 0 001.927 1.116l1.4-.615a.75.75 0 01.85.174 9.793 9.793 0 012.205 3.792.75.75 0 01-.272.826l-1.241.915a1.38 1.38 0 000 2.226l1.243.915a.75.75 0 01.272.826 9.798 9.798 0 01-2.204 3.792.75.75 0 01-.848.175l-1.407-.616a1.38 1.38 0 00-1.926 1.113l-.17 1.526a.75.75 0 01-.571.647 9.516 9.516 0 01-4.406 0 .75.75 0 01-.572-.646l-.169-1.525a1.382 1.382 0 00-1.925-1.11l-1.406.616a.75.75 0 01-.85-.175 9.798 9.798 0 01-2.203-3.796.75.75 0 01.272-.826l1.243-.916a1.381 1.381 0 000-2.226l-1.243-.914a.75.75 0 01-.272-.826A9.793 9.793 0 014.88 5.355a.75.75 0 01.85-.174l1.4.615a1.387 1.387 0 001.93-1.118l.17-1.526a.75.75 0 01.583-.649c.717-.16 1.449-.244 2.201-.253zm0 1.5a9.136 9.136 0 00-1.354.117l-.11.977A2.886 2.886 0 016.527 7.17l-.899-.394A8.293 8.293 0 004.28 9.092l.798.587a2.881 2.881 0 01.001 4.643l-.799.588c.32.842.776 1.626 1.348 2.322l.905-.397a2.882 2.882 0 014.017 2.318l.109.984c.89.15 1.798.15 2.688 0l.109-.984a2.88 2.88 0 014.019-2.322l.904.396a8.299 8.299 0 001.348-2.318l-.798-.588a2.881 2.881 0 01-.001-4.642l.797-.588a8.293 8.293 0 00-1.348-2.317l-.897.393a2.884 2.884 0 01-4.023-2.324l-.109-.976a8.991 8.991 0 00-1.334-.117zm-.012 4.5a3.75 3.75 0 110 7.5 3.75 3.75 0 010-7.5zm0 1.5a2.25 2.25 0 100 4.5 2.25 2.25 0 000-4.5z" fill="currentColor"/></svg>
